X:1
T: Andrew McAndrew
C:Bruce Shawyer
R:Jig
Q:180
K:D
M:6/8
L:1/16
|:A2|d6B6|A2F2A2 A2F2A2|d4d2 d2e2f2|g4e2 c2B2A2|
d6B6|A4F2 D2F2A2|d4D2 D2E2F2|E6 D4A2|
F6A6|A2B2A2 A2B2A2|G6B6|B2c2B2 B2c2B2|
F6A6|d4A2 A2B2A2|d4D2 D2E2F2|E6 D4:|
